<?xml version="1.0" encoding="UTF-8"?>
<map version="1.10" tiledversion="1.11.0" orientation="orthogonal" renderorder="right-down" width="20" height="15" tilewidth="16" tileheight="16" infinite="0" nextlayerid="7" nextobjectid="1">
 <tileset firstgid="1" source="character.tsx"/>
 <tileset firstgid="65" source="bg.tsx"/>
 <tileset firstgid="129" source="tree.tsx"/>
 <tileset firstgid="161" source="ramp.tsx"/>
 <tileset firstgid="193" source="numbers.tsx"/>
 <layer id="1" name="background" width="20" height="15">
  <data encoding="csv">
209,210,224,204,224,224,213,214,215,224,203,224,224,224,224,211,212,224,224,224,
112,77,80,112,112,112,112,112,77,78,79,80,112,112,112,112,77,80,112,112,
112,93,96,112,112,112,112,112,93,94,95,96,112,112,112,112,93,96,112,112,
111,109,110,111,111,111,111,111,111,111,111,111,111,111,109,110,111,111,111,111,
65,125,126,127,65,65,65,128,65,65,65,128,65,65,125,126,127,65,65,65,
68,68,68,68,101,97,97,97,97,97,97,97,97,97,97,97,97,97,97,97,
68,68,68,68,117,113,113,113,113,113,113,113,113,113,113,113,113,113,113,113,
68,68,68,70,66,66,66,66,66,66,66,66,66,66,66,66,66,66,66,66,
68,68,68,86,82,82,82,82,82,82,82,82,82,82,82,82,82,82,82,82,
68,68,102,98,98,98,98,98,98,98,98,98,98,98,98,98,98,98,98,98,
68,68,118,114,114,114,114,114,114,114,114,114,114,114,114,114,114,114,114,114,
68,71,67,67,67,67,67,67,67,67,67,67,67,67,67,67,67,67,67,67,
68,87,83,83,83,83,83,83,83,83,83,83,83,83,83,83,83,83,83,83,
103,99,99,99,99,99,99,99,99,99,99,99,99,99,99,99,99,99,99,99,
119,115,115,115,115,115,115,115,115,115,115,115,216,217,218,219,205,206,207,208
</data>
 </layer>
 <layer id="4" name="shore" width="20" height="15">
  <data encoding="csv">
0,0,0,0,0,0,0,0,0,0,0,0,0,0,0,0,0,0,0,0,
0,0,0,0,0,0,0,0,0,0,0,0,0,0,0,0,0,0,0,0,
0,0,0,0,0,0,0,0,0,0,0,0,0,0,0,0,0,0,0,0,
0,0,0,0,0,104,0,0,0,0,0,0,0,0,0,0,0,0,0,0,
0,0,0,0,88,120,0,0,0,0,0,0,0,0,0,0,0,0,0,0,
0,0,0,0,104,0,0,0,0,0,0,0,0,0,0,0,0,0,0,0,
0,0,0,88,120,0,0,0,0,0,0,0,0,0,0,0,0,0,0,0,
0,0,0,104,0,0,0,0,0,0,0,0,0,0,0,0,0,0,0,0,
0,0,88,120,0,0,0,0,0,0,0,0,0,0,0,0,0,0,0,0,
0,0,104,0,0,0,0,0,0,0,0,0,0,0,0,0,0,0,0,0,
0,88,120,0,0,0,0,0,0,0,0,0,0,0,0,0,0,0,0,0,
0,104,0,0,0,0,0,0,0,0,0,0,0,0,0,0,0,0,0,0,
88,120,0,0,0,0,0,0,0,0,0,0,0,0,0,0,0,0,0,0,
104,0,0,0,0,0,0,0,0,0,0,0,0,0,0,0,0,0,0,0,
120,0,0,0,0,0,0,0,0,0,0,0,0,0,0,0,0,0,0,0
</data>
 </layer>
 <layer id="5" name="sky" width="20" height="15">
  <data encoding="csv">
0,0,0,0,0,0,0,0,0,0,0,0,0,0,0,0,0,0,0,0,
0,0,0,0,0,0,0,0,0,0,0,0,0,0,0,0,0,0,0,0,
0,0,0,0,0,0,0,0,0,0,0,0,0,0,0,0,0,0,0,0,
0,0,0,0,0,111,0,0,0,0,0,0,0,0,0,0,0,0,0,0,
0,0,0,0,65,65,0,0,0,0,0,0,0,0,0,0,0,0,0,0,
0,0,0,0,0,0,0,0,0,0,0,0,0,0,0,0,0,0,0,0,
0,0,0,0,0,0,0,0,0,0,0,0,0,0,0,0,0,0,0,0,
0,0,0,0,0,0,0,0,0,0,0,0,0,0,0,0,0,0,0,0,
0,0,0,0,0,0,0,0,0,0,0,0,0,0,0,0,0,0,0,0,
0,0,0,0,0,0,0,0,0,0,0,0,0,0,0,0,0,0,0,0,
0,0,0,0,0,0,0,0,0,0,0,0,0,0,0,0,0,0,0,0,
0,0,0,0,0,0,0,0,0,0,0,0,0,0,0,0,0,0,0,0,
0,0,0,0,0,0,0,0,0,0,0,0,0,0,0,0,0,0,0,0,
0,0,0,0,0,0,0,0,0,0,0,0,0,0,0,0,0,0,0,0,
0,0,0,0,0,0,0,0,0,0,0,0,0,0,0,0,0,0,0,0
</data>
 </layer>
 <layer id="6" name="hud" width="20" height="15">
  <data encoding="csv">
0,0,193,0,195,0,0,0,0,197,0,196,201,0,0,0,0,194,221,0,
0,0,0,0,0,0,0,0,0,0,0,0,0,0,0,0,0,0,0,0,
0,0,0,0,0,0,0,0,0,0,0,0,0,0,0,0,0,0,0,0,
0,0,0,0,0,0,0,0,0,0,0,0,0,0,0,0,0,0,0,0,
0,0,0,0,0,0,0,0,0,0,0,0,0,0,0,0,0,0,0,0,
0,0,0,0,0,0,0,0,0,0,0,0,0,0,0,0,0,0,0,0,
0,0,0,0,0,0,0,0,0,0,0,0,0,0,0,0,0,0,0,0,
0,0,0,0,0,0,0,0,0,0,0,0,0,0,0,0,0,0,0,0,
0,0,0,0,0,0,0,0,0,0,0,0,0,0,0,0,0,0,0,0,
0,0,0,0,0,0,0,0,0,0,0,0,0,0,0,0,0,0,0,0,
0,0,0,0,0,0,0,0,0,0,0,0,0,0,0,0,0,0,0,0,
0,0,0,0,0,0,0,0,0,0,0,0,0,0,0,0,0,0,0,0,
0,0,0,0,0,0,0,0,0,0,0,0,0,0,0,0,0,0,0,0,
0,0,0,0,0,0,0,0,0,0,0,0,0,0,0,0,0,0,0,0,
0,0,0,0,0,0,0,0,0,0,0,0,0,0,0,0,0,0,0,0
</data>
 </layer>
 <layer id="3" name="sprite" width="20" height="15">
  <data encoding="csv">
0,0,0,0,0,0,0,0,0,0,0,0,0,0,0,0,0,0,0,0,
0,0,0,0,0,0,0,0,0,0,0,0,0,0,0,0,0,0,0,0,
0,0,0,0,0,0,0,0,0,0,0,0,0,0,0,0,0,0,0,0,
0,0,0,0,0,0,0,29,30,0,0,75,76,0,0,0,0,0,0,0,
0,152,152,0,0,0,136,45,46,0,136,91,0,0,0,0,0,0,0,0,
0,160,160,141,142,27,28,61,62,0,0,184,0,0,0,0,0,0,0,0,
129,130,0,149,150,43,44,144,0,0,0,192,0,0,73,0,0,0,0,0,
137,138,0,157,0,59,60,0,0,25,0,0,0,0,0,0,0,0,0,0,
145,146,0,0,144,1,0,0,40,41,42,0,0,0,0,0,0,0,0,0,
153,0,0,0,0,1,0,0,56,57,58,0,0,0,0,0,0,0,0,0,
0,0,0,135,17,0,2,3,0,0,0,0,0,0,161,162,0,0,0,0,
0,0,0,0,17,0,18,19,0,0,0,0,0,0,169,170,0,0,0,0,
0,0,0,0,0,33,34,35,36,0,0,0,0,0,177,178,0,0,0,0,
0,0,143,17,0,49,50,51,52,0,0,0,0,0,185,186,0,0,0,0,
0,0,0,0,0,0,0,0,0,0,0,0,0,0,0,0,0,0,0,0
</data>
 </layer>
</map>
